movej([-2, -1.51652, -2.31064, -0.812974, 1.58755, -1.14337], a=1, v=1, t=0, r=0)
movej([-1.95078, -1.47505, -2.30915, -0.77775, 1.59956, -1.13354], a=1, v=1, t=0, r=0)
movej([-1.90157, -1.43359, -2.30766, -0.742527, 1.61156, -1.12372], a=1, v=1, t=0, r=0)
movej([-1.2871, -1.60876, -1.72485, -0.796675, 1.45053, -0.960266], a=1, v=1, t=0, r=0)
movej([-1.24744, -1.57882, -1.69033, -0.807106, 1.41584, -0.93474], a=1, v=1, t=0, r=0)
movej([-1.20779, -1.54888, -1.6558, -0.817537, 1.38114, -0.909214], a=1, v=1, t=0, r=0)
movej([-1.09194, -1.61267, -1.48422, -0.821008, 1.24098, -0.850128], a=1, v=1, t=0, r=0)
movej([-1.01976, -1.88177, -1.10375, -0.957254, 1.28932, -1.04583], a=1, v=1, t=0, r=0)
movej([-0.962798, -1.89363, -1.11127, -0.984268, 1.2651, -1.07526], a=1, v=1, t=0, r=0)
movej([-0.940116, -1.94611, -1.12095, -1.0078, 1.30555, -1.08377], a=1, v=1, t=0, r=0)
movej([-0.887647, -1.96834, -1.13121, -1.03912, 1.27818, -1.10705], a=1, v=1, t=0, r=0)
movej([-0.849628, -1.96853, -1.08482, -1.05402, 1.30074, -1.07105], a=1, v=1, t=0, r=0)
movej([-0.825161, -2.07171, -1.08551, -0.981216, 1.45052, -1.04218], a=1, v=1, t=0, r=0)
movej([-0.769194, -2.07462, -1.11113, -1.00327, 1.41418, -1.0468], a=1, v=1, t=0, r=0)
movej([-0.771675, -2.124, -1.12715, -1.03825, 1.45027, -1.06674], a=1, v=1, t=0, r=0)
movej([-0.819875, -2.12791, -1.16115, -1.00856, 1.48533, -1.06228], a=1, v=1, t=0, r=0)
movej([-0.761995, -2.13632, -1.11962, -1.00817, 1.48715, -1.08411], a=1, v=1, t=0, r=0)
movej([-0.77848, -2.15433, -1.13024, -1.06704, 1.48649, -1.04603], a=1, v=1, t=0, r=0)
movej([-0.741124, -2.17063, -1.09846, -1.05774, 1.53587, -1.06674], a=1, v=1, t=0, r=0)
movej([-0.771492, -2.14363, -1.13971, -1.09674, 1.54867, -1.09098], a=1, v=1, t=0, r=0)
movej([-0.788189, -2.17627, -1.14664, -1.15912, 1.54824, -1.10946], a=1, v=1, t=0, r=0)
movej([-0.804206, -2.18577, -1.17565, -1.10292, 1.57108, -1.13697], a=1, v=1, t=0, r=0)
movej([-0.763558, -2.19731, -1.13299, -1.13679, 1.57787, -1.10822], a=1, v=1, t=0, r=0)
movej([-0.711524, -2.2024, -1.17592, -1.15688, 1.59084, -1.13005], a=1, v=1, t=0, r=0)
movej([-0.750634, -2.26491, -1.18312, -1.16575, 1.58978, -1.13752], a=1, v=1, t=0, r=0)
sleep(2.0)
movej([-0.750634, -2.26491, -1.18312, -1.16575, 1.58978, -1.13752], a=1, v=1, t=0, r=0)
movej([-0.711524, -2.2024, -1.17592, -1.15688, 1.59084, -1.13005], a=1, v=1, t=0, r=0)
movej([-0.763558, -2.19731, -1.13299, -1.13679, 1.57787, -1.10822], a=1, v=1, t=0, r=0)
movej([-0.804206, -2.18577, -1.17565, -1.10292, 1.57108, -1.13697], a=1, v=1, t=0, r=0)
movej([-0.788189, -2.17627, -1.14664, -1.15912, 1.54824, -1.10946], a=1, v=1, t=0, r=0)
movej([-0.771492, -2.14363, -1.13971, -1.09674, 1.54867, -1.09098], a=1, v=1, t=0, r=0)
movej([-0.741124, -2.17063, -1.09846, -1.05774, 1.53587, -1.06674], a=1, v=1, t=0, r=0)
movej([-0.77848, -2.15433, -1.13024, -1.06704, 1.48649, -1.04603], a=1, v=1, t=0, r=0)
movej([-0.761995, -2.13632, -1.11962, -1.00817, 1.48715, -1.08411], a=1, v=1, t=0, r=0)
movej([-0.819875, -2.12791, -1.16115, -1.00856, 1.48533, -1.06228], a=1, v=1, t=0, r=0)
movej([-0.771675, -2.124, -1.12715, -1.03825, 1.45027, -1.06674], a=1, v=1, t=0, r=0)
movej([-0.769194, -2.07462, -1.11113, -1.00327, 1.41418, -1.0468], a=1, v=1, t=0, r=0)
movej([-0.825161, -2.07171, -1.08551, -0.981216, 1.45052, -1.04218], a=1, v=1, t=0, r=0)
movej([-0.849628, -1.96853, -1.08482, -1.05402, 1.30074, -1.07105], a=1, v=1, t=0, r=0)
movej([-0.887647, -1.96834, -1.13121, -1.03912, 1.27818, -1.10705], a=1, v=1, t=0, r=0)
movej([-0.940116, -1.94611, -1.12095, -1.0078, 1.30555, -1.08377], a=1, v=1, t=0, r=0)
movej([-0.962798, -1.89363, -1.11127, -0.984268, 1.2651, -1.07526], a=1, v=1, t=0, r=0)
movej([-1.01976, -1.88177, -1.10375, -0.957254, 1.28932, -1.04583], a=1, v=1, t=0, r=0)
movej([-1.09194, -1.61267, -1.48422, -0.821008, 1.24098, -0.850128], a=1, v=1, t=0, r=0)
movej([-1.20779, -1.54888, -1.6558, -0.817537, 1.38114, -0.909214], a=1, v=1, t=0, r=0)
movej([-1.24744, -1.57882, -1.69033, -0.807106, 1.41584, -0.93474], a=1, v=1, t=0, r=0)
movej([-1.2871, -1.60876, -1.72485, -0.796675, 1.45053, -0.960266], a=1, v=1, t=0, r=0)
movej([-1.90157, -1.43359, -2.30766, -0.742527, 1.61156, -1.12372], a=1, v=1, t=0, r=0)
movej([-1.95078, -1.47505, -2.30915, -0.77775, 1.59956, -1.13354], a=1, v=1, t=0, r=0)
movej([-2, -1.51652, -2.31064, -0.812974, 1.58755, -1.14337], a=1, v=1, t=0, r=0)
sleep(2.0)
