movej([-2, -1.51652, -2.31064, -0.812974, 1.58755, -1.14337], a=1, v=1, t=0, r=0)
movej([-1.40109, -1.78171, -1.52545, -1.28274, 1.52385, -1.31986], a=1, v=1, t=0, r=0)
movej([-1.40833, -1.79321, -1.48973, -1.26007, 1.47632, -1.24392], a=1, v=1, t=0, r=0)
movej([-1.41556, -1.80471, -1.454, -1.23741, 1.4288, -1.16798], a=1, v=1, t=0, r=0)
movej([-1.34291, -1.86301, -1.42362, -1.23, 1.44714, -1.16516], a=1, v=1, t=0, r=0)
movej([-1.28666, -1.90716, -1.34197, -1.17914, 1.45706, -1.08839], a=1, v=1, t=0, r=0)
movej([-1.22924, -1.87606, -1.28321, -1.14832, 1.47525, -1.05674], a=1, v=1, t=0, r=0)
movej([-1.17182, -1.84497, -1.22444, -1.1175, 1.49344, -1.02509], a=1, v=1, t=0, r=0)
movej([-1.06799, -1.88387, -1.16579, -1.05181, 1.4569, -1.03744], a=1, v=1, t=0, r=0)
movej([-1.01317, -1.87767, -1.12676, -0.988973, 1.49222, -1.05281], a=1, v=1, t=0, r=0)
movej([-0.970758, -1.95741, -1.13809, -1.02256, 1.5099, -1.06937], a=1, v=1, t=0, r=0)
movej([-0.920358, -1.98883, -1.09308, -0.997111, 1.48139, -1.01473], a=1, v=1, t=0, r=0)
movej([-0.849245, -1.95637, -1.07641, -1.04049, 1.51701, -1.03622], a=1, v=1, t=0, r=0)
movej([-0.862365, -1.98633, -1.08177, -1.06447, 1.42766, -1.05474], a=1, v=1, t=0, r=0)
movej([-0.832937, -2.04683, -1.03253, -1.04652, 1.46361, -1.04751], a=1, v=1, t=0, r=0)
movej([-0.843197, -2.11106, -0.975209, -1.06022, 1.47125, -1.0948], a=1, v=1, t=0, r=0)
movej([-0.860524, -2.10891, -1.03233, -1.10406, 1.47559, -1.02779], a=1, v=1, t=0, r=0)
movej([-0.835887, -2.17255, -1.08092, -1.12538, 1.5108, -1.06369], a=1, v=1, t=0, r=0)
movej([-0.78304, -2.17856, -1.12711, -1.17352, 1.56171, -1.07496], a=1, v=1, t=0, r=0)
movej([-0.757292, -2.24453, -1.14504, -1.18891, 1.5434, -1.11497], a=1, v=1, t=0, r=0)
movej([-0.816348, -2.26467, -1.15985, -1.12691, 1.5288, -1.15775], a=1, v=1, t=0, r=0)
movej([-0.744377, -2.2632, -1.19613, -1.14856, 1.56084, -1.20255], a=1, v=1, t=0, r=0)
sleep(2.0)
movej([-0.744377, -2.2632, -1.19613, -1.14856, 1.56084, -1.20255], a=1, v=1, t=0, r=0)
movej([-0.816348, -2.26467, -1.15985, -1.12691, 1.5288, -1.15775], a=1, v=1, t=0, r=0)
movej([-0.757292, -2.24453, -1.14504, -1.18891, 1.5434, -1.11497], a=1, v=1, t=0, r=0)
movej([-0.78304, -2.17856, -1.12711, -1.17352, 1.56171, -1.07496], a=1, v=1, t=0, r=0)
movej([-0.835887, -2.17255, -1.08092, -1.12538, 1.5108, -1.06369], a=1, v=1, t=0, r=0)
movej([-0.860524, -2.10891, -1.03233, -1.10406, 1.47559, -1.02779], a=1, v=1, t=0, r=0)
movej([-0.843197, -2.11106, -0.975209, -1.06022, 1.47125, -1.0948], a=1, v=1, t=0, r=0)
movej([-0.832937, -2.04683, -1.03253, -1.04652, 1.46361, -1.04751], a=1, v=1, t=0, r=0)
movej([-0.862365, -1.98633, -1.08177, -1.06447, 1.42766, -1.05474], a=1, v=1, t=0, r=0)
movej([-0.849245, -1.95637, -1.07641, -1.04049, 1.51701, -1.03622], a=1, v=1, t=0, r=0)
movej([-0.920358, -1.98883, -1.09308, -0.997111, 1.48139, -1.01473], a=1, v=1, t=0, r=0)
movej([-0.970758, -1.95741, -1.13809, -1.02256, 1.5099, -1.06937], a=1, v=1, t=0, r=0)
movej([-1.01317, -1.87767, -1.12676, -0.988973, 1.49222, -1.05281], a=1, v=1, t=0, r=0)
movej([-1.06799, -1.88387, -1.16579, -1.05181, 1.4569, -1.03744], a=1, v=1, t=0, r=0)
movej([-1.17182, -1.84497, -1.22444, -1.1175, 1.49344, -1.02509], a=1, v=1, t=0, r=0)
movej([-1.22924, -1.87606, -1.28321, -1.14832, 1.47525, -1.05674], a=1, v=1, t=0, r=0)
movej([-1.28666, -1.90716, -1.34197, -1.17914, 1.45706, -1.08839], a=1, v=1, t=0, r=0)
movej([-1.34291, -1.86301, -1.42362, -1.23, 1.44714, -1.16516], a=1, v=1, t=0, r=0)
movej([-1.41556, -1.80471, -1.454, -1.23741, 1.4288, -1.16798], a=1, v=1, t=0, r=0)
movej([-1.40833, -1.79321, -1.48973, -1.26007, 1.47632, -1.24392], a=1, v=1, t=0, r=0)
movej([-1.40109, -1.78171, -1.52545, -1.28274, 1.52385, -1.31986], a=1, v=1, t=0, r=0)
movej([-2, -1.51652, -2.31064, -0.812974, 1.58755, -1.14337], a=1, v=1, t=0, r=0)
sleep(2.0)
