movej([-2.14, -1.44, -2.33, -0.92, 1.6, -1.74], a=1, v=1, t=0, r=0)
movej([-1.34414, -1.353, -2.13867, -1.17922, 1.40646, -1.11732], a=1, v=1, t=0, r=0)
movej([-1.31852, -1.36131, -2.09944, -1.18553, 1.39993, -1.10492], a=1, v=1, t=0, r=0)
movej([-1.24105, -1.36663, -1.96572, -1.17918, 1.36601, -0.992712], a=1, v=1, t=0, r=0)
movej([-1.18919, -1.36365, -1.87122, -1.16651, 1.33863, -0.892903], a=1, v=1, t=0, r=0)
movej([-0.90688, -1.66477, -1.77939, -0.99803, 1.44911, -0.971076], a=1, v=1, t=0, r=0)
movej([-0.735039, -1.75137, -1.75457, -0.963563, 1.46889, -0.973976], a=1, v=1, t=0, r=0)
movej([-0.744034, -1.83431, -1.72229, -0.936563, 1.53318, -1.04176], a=1, v=1, t=0, r=0)
movej([-0.757825, -1.871, -1.72525, -0.949384, 1.54346, -1.06793], a=1, v=1, t=0, r=0)
sleep(2.0)
movej([-0.757825, -1.871, -1.72525, -0.949384, 1.54346, -1.06793], a=1, v=1, t=0, r=0)
movej([-0.744034, -1.83431, -1.72229, -0.936563, 1.53318, -1.04176], a=1, v=1, t=0, r=0)
movej([-0.735039, -1.75137, -1.75457, -0.963563, 1.46889, -0.973976], a=1, v=1, t=0, r=0)
movej([-0.90688, -1.66477, -1.77939, -0.99803, 1.44911, -0.971076], a=1, v=1, t=0, r=0)
movej([-1.18919, -1.36365, -1.87122, -1.16651, 1.33863, -0.892903], a=1, v=1, t=0, r=0)
movej([-1.24105, -1.36663, -1.96572, -1.17918, 1.36601, -0.992712], a=1, v=1, t=0, r=0)
movej([-1.31852, -1.36131, -2.09944, -1.18553, 1.39993, -1.10492], a=1, v=1, t=0, r=0)
movej([-1.34414, -1.353, -2.13867, -1.17922, 1.40646, -1.11732], a=1, v=1, t=0, r=0)
movej([-2.14, -1.44, -2.33, -0.92, 1.6, -1.74], a=1, v=1, t=0, r=0)
sleep(2.0)
