movej([-2.14, -1.44, -2.33, -0.92, 1.6, -1.74], a=1, v=1, t=0, r=0)
movej([-2.04342, -1.21056, -2.17759, -0.677808, 1.44833, -1.34949], a=1, v=1, t=0, r=0)
movej([-2.02623, -1.22698, -2.14798, -0.662353, 1.45762, -1.32242], a=1, v=1, t=0, r=0)
movej([-2.00904, -1.2434, -2.11837, -0.646899, 1.46692, -1.29535], a=1, v=1, t=0, r=0)
movej([-1.99186, -1.25982, -2.08875, -0.631444, 1.47621, -1.26828], a=1, v=1, t=0, r=0)
movej([-1.97467, -1.27624, -2.05914, -0.61599, 1.48551, -1.24121], a=1, v=1, t=0, r=0)
movej([-1.95748, -1.29267, -2.02953, -0.600536, 1.4948, -1.21414], a=1, v=1, t=0, r=0)
movej([-1.94029, -1.30909, -1.99992, -0.585081, 1.5041, -1.18707], a=1, v=1, t=0, r=0)
movej([-1.9231, -1.32551, -1.97031, -0.569627, 1.51339, -1.16], a=1, v=1, t=0, r=0)
movej([-1.88158, -1.34747, -1.96158, -0.58417, 1.51509, -1.15818], a=1, v=1, t=0, r=0)
movej([-1.84006, -1.36942, -1.95285, -0.598713, 1.51678, -1.15637], a=1, v=1, t=0, r=0)
movej([-1.79854, -1.39138, -1.94412, -0.613256, 1.51847, -1.15455], a=1, v=1, t=0, r=0)
movej([-1.75702, -1.41334, -1.93539, -0.627799, 1.52017, -1.15274], a=1, v=1, t=0, r=0)
movej([-1.71549, -1.43529, -1.92666, -0.642342, 1.52186, -1.15092], a=1, v=1, t=0, r=0)
movej([-1.67397, -1.45725, -1.91793, -0.656885, 1.52355, -1.1491], a=1, v=1, t=0, r=0)
movej([-1.63245, -1.47921, -1.9092, -0.671427, 1.52524, -1.14729], a=1, v=1, t=0, r=0)
movej([-1.59093, -1.50117, -1.90048, -0.68597, 1.52694, -1.14547], a=1, v=1, t=0, r=0)
movej([-1.54941, -1.52312, -1.89175, -0.700513, 1.52863, -1.14365], a=1, v=1, t=0, r=0)
movej([-1.50789, -1.54508, -1.88302, -0.715056, 1.53032, -1.14184], a=1, v=1, t=0, r=0)
movej([-1.46637, -1.56704, -1.87429, -0.729599, 1.53202, -1.14002], a=1, v=1, t=0, r=0)
movej([-1.42484, -1.589, -1.86556, -0.744142, 1.53371, -1.13821], a=1, v=1, t=0, r=0)
movej([-1.25876, -1.67682, -1.83065, -0.802314, 1.54048, -1.13094], a=1, v=1, t=0, r=0)
movej([-1.21724, -1.69878, -1.82192, -0.816857, 1.54217, -1.12913], a=1, v=1, t=0, r=0)
movej([-1.17572, -1.72074, -1.81319, -0.8314, 1.54387, -1.12731], a=1, v=1, t=0, r=0)
movej([-1.13419, -1.7427, -1.80446, -0.845943, 1.54556, -1.12549], a=1, v=1, t=0, r=0)
movej([-1.09267, -1.76465, -1.79573, -0.860486, 1.54725, -1.12368], a=1, v=1, t=0, r=0)
movej([-1.05115, -1.78661, -1.787, -0.875029, 1.54894, -1.12186], a=1, v=1, t=0, r=0)
movej([-1.00963, -1.80857, -1.77827, -0.889572, 1.55064, -1.12004], a=1, v=1, t=0, r=0)
movej([-0.968109, -1.83052, -1.76954, -0.904114, 1.55233, -1.11823], a=1, v=1, t=0, r=0)
movej([-0.926588, -1.85248, -1.76082, -0.918657, 1.55402, -1.11641], a=1, v=1, t=0, r=0)
movej([-0.885066, -1.87444, -1.75209, -0.9332, 1.55572, -1.1146], a=1, v=1, t=0, r=0)
movej([-0.843545, -1.8964, -1.74336, -0.947743, 1.55741, -1.11278], a=1, v=1, t=0, r=0)
sleep(2.0)
movej([-0.843545, -1.8964, -1.74336, -0.947743, 1.55741, -1.11278], a=1, v=1, t=0, r=0)
movej([-0.885066, -1.87444, -1.75209, -0.9332, 1.55572, -1.1146], a=1, v=1, t=0, r=0)
movej([-0.926588, -1.85248, -1.76082, -0.918657, 1.55402, -1.11641], a=1, v=1, t=0, r=0)
movej([-0.968109, -1.83052, -1.76954, -0.904114, 1.55233, -1.11823], a=1, v=1, t=0, r=0)
movej([-1.00963, -1.80857, -1.77827, -0.889572, 1.55064, -1.12004], a=1, v=1, t=0, r=0)
movej([-1.05115, -1.78661, -1.787, -0.875029, 1.54894, -1.12186], a=1, v=1, t=0, r=0)
movej([-1.09267, -1.76465, -1.79573, -0.860486, 1.54725, -1.12368], a=1, v=1, t=0, r=0)
movej([-1.13419, -1.7427, -1.80446, -0.845943, 1.54556, -1.12549], a=1, v=1, t=0, r=0)
movej([-1.17572, -1.72074, -1.81319, -0.8314, 1.54387, -1.12731], a=1, v=1, t=0, r=0)
movej([-1.21724, -1.69878, -1.82192, -0.816857, 1.54217, -1.12913], a=1, v=1, t=0, r=0)
movej([-1.25876, -1.67682, -1.83065, -0.802314, 1.54048, -1.13094], a=1, v=1, t=0, r=0)
movej([-1.42484, -1.589, -1.86556, -0.744142, 1.53371, -1.13821], a=1, v=1, t=0, r=0)
movej([-1.46637, -1.56704, -1.87429, -0.729599, 1.53202, -1.14002], a=1, v=1, t=0, r=0)
movej([-1.50789, -1.54508, -1.88302, -0.715056, 1.53032, -1.14184], a=1, v=1, t=0, r=0)
movej([-1.54941, -1.52312, -1.89175, -0.700513, 1.52863, -1.14365], a=1, v=1, t=0, r=0)
movej([-1.59093, -1.50117, -1.90048, -0.68597, 1.52694, -1.14547], a=1, v=1, t=0, r=0)
movej([-1.63245, -1.47921, -1.9092, -0.671427, 1.52524, -1.14729], a=1, v=1, t=0, r=0)
movej([-1.67397, -1.45725, -1.91793, -0.656885, 1.52355, -1.1491], a=1, v=1, t=0, r=0)
movej([-1.71549, -1.43529, -1.92666, -0.642342, 1.52186, -1.15092], a=1, v=1, t=0, r=0)
movej([-1.75702, -1.41334, -1.93539, -0.627799, 1.52017, -1.15274], a=1, v=1, t=0, r=0)
movej([-1.79854, -1.39138, -1.94412, -0.613256, 1.51847, -1.15455], a=1, v=1, t=0, r=0)
movej([-1.84006, -1.36942, -1.95285, -0.598713, 1.51678, -1.15637], a=1, v=1, t=0, r=0)
movej([-1.88158, -1.34747, -1.96158, -0.58417, 1.51509, -1.15818], a=1, v=1, t=0, r=0)
movej([-1.9231, -1.32551, -1.97031, -0.569627, 1.51339, -1.16], a=1, v=1, t=0, r=0)
movej([-1.94029, -1.30909, -1.99992, -0.585081, 1.5041, -1.18707], a=1, v=1, t=0, r=0)
movej([-1.95748, -1.29267, -2.02953, -0.600536, 1.4948, -1.21414], a=1, v=1, t=0, r=0)
movej([-1.97467, -1.27624, -2.05914, -0.61599, 1.48551, -1.24121], a=1, v=1, t=0, r=0)
movej([-1.99186, -1.25982, -2.08875, -0.631444, 1.47621, -1.26828], a=1, v=1, t=0, r=0)
movej([-2.00904, -1.2434, -2.11837, -0.646899, 1.46692, -1.29535], a=1, v=1, t=0, r=0)
movej([-2.02623, -1.22698, -2.14798, -0.662353, 1.45762, -1.32242], a=1, v=1, t=0, r=0)
movej([-2.04342, -1.21056, -2.17759, -0.677808, 1.44833, -1.34949], a=1, v=1, t=0, r=0)
movej([-2.14, -1.44, -2.33, -0.92, 1.6, -1.74], a=1, v=1, t=0, r=0)
sleep(2.0)
