movej([0, -1.5708, 0, -1.5708, 0, 0], a=1, v=1, t=0, r=0)
movej([-0.502983, -1.78054, -1.56113, -0.86917, 1.49753, -0.958994], a=1, v=1, t=0, r=0)
movej([-0.537137, -1.79897, -1.58195, -0.881601, 1.50523, -0.977612], a=1, v=1, t=0, r=0)
movej([-0.554893, -1.77271, -1.59907, -0.890224, 1.52313, -0.9492], a=1, v=1, t=0, r=0)
movej([-0.586584, -1.79485, -1.6175, -0.901455, 1.52832, -0.971838], a=1, v=1, t=0, r=0)
movej([-0.74504, -1.90557, -1.70967, -0.957611, 1.55427, -1.08503], a=1, v=1, t=0, r=0)
sleep(2.0)
movej([-0.74504, -1.90557, -1.70967, -0.957611, 1.55427, -1.08503], a=1, v=1, t=0, r=0)
movej([-0.586584, -1.79485, -1.6175, -0.901455, 1.52832, -0.971838], a=1, v=1, t=0, r=0)
movej([-0.554893, -1.77271, -1.59907, -0.890224, 1.52313, -0.9492], a=1, v=1, t=0, r=0)
movej([-0.537137, -1.79897, -1.58195, -0.881601, 1.50523, -0.977612], a=1, v=1, t=0, r=0)
movej([-0.502983, -1.78054, -1.56113, -0.86917, 1.49753, -0.958994], a=1, v=1, t=0, r=0)
movej([0, -1.5708, 0, -1.5708, 0, 0], a=1, v=1, t=0, r=0)
sleep(2.0)
