movej([-2, -1.51652, -2.31064, -0.812974, 1.58755, -1.14337], a=1, v=1, t=0, r=0)
movej([-1.94146, -1.53565, -2.29219, -0.833773, 1.55717, -1.15504], a=1, v=1, t=0, r=0)
movej([-1.88293, -1.55479, -2.27374, -0.854572, 1.52679, -1.16672], a=1, v=1, t=0, r=0)
movej([-1.31112, -1.74931, -1.62477, -0.967336, 1.47152, -0.993718], a=1, v=1, t=0, r=0)
movej([-1.28141, -1.74417, -1.58122, -0.964717, 1.44028, -0.950865], a=1, v=1, t=0, r=0)
movej([-1.22197, -1.7339, -1.49413, -0.95948, 1.3778, -0.865158], a=1, v=1, t=0, r=0)
movej([-1.19225, -1.72876, -1.45058, -0.956862, 1.34656, -0.822304], a=1, v=1, t=0, r=0)
movej([-1.14741, -1.72802, -1.41148, -0.938906, 1.31034, -0.843544], a=1, v=1, t=0, r=0)
movej([-0.859622, -1.84082, -1.24612, -0.902286, 1.24996, -0.976573], a=1, v=1, t=0, r=0)
movej([-0.736135, -1.89141, -1.17675, -1.02138, 1.31121, -0.99725], a=1, v=1, t=0, r=0)
movej([-0.697855, -1.90731, -1.08492, -1.02006, 1.35971, -1.05701], a=1, v=1, t=0, r=0)
movej([-0.64513, -1.92071, -1.12024, -1.01571, 1.38222, -1.08689], a=1, v=1, t=0, r=0)
movej([-0.668075, -1.89797, -1.13088, -1.04944, 1.44409, -1.12581], a=1, v=1, t=0, r=0)
movej([-0.685942, -1.96364, -1.14002, -1.0689, 1.46697, -1.12859], a=1, v=1, t=0, r=0)
movej([-0.729986, -1.97232, -1.1201, -1.09543, 1.41909, -1.11389], a=1, v=1, t=0, r=0)
movej([-0.740804, -2.09016, -1.07476, -1.19121, 1.55404, -1.10222], a=1, v=1, t=0, r=0)
movej([-0.752435, -2.15454, -1.10757, -1.18588, 1.56409, -1.11407], a=1, v=1, t=0, r=0)
movej([-0.695438, -2.17026, -1.13196, -1.16353, 1.53874, -1.13387], a=1, v=1, t=0, r=0)
movej([-0.735717, -2.25313, -1.15155, -1.0945, 1.52311, -1.08653], a=1, v=1, t=0, r=0)
movej([-0.769027, -2.22568, -1.15807, -1.16045, 1.57308, -1.10201], a=1, v=1, t=0, r=0)
movej([-0.804944, -2.25725, -1.13267, -1.17901, 1.6207, -1.11099], a=1, v=1, t=0, r=0)
sleep(2.0)
movej([-0.804944, -2.25725, -1.13267, -1.17901, 1.6207, -1.11099], a=1, v=1, t=0, r=0)
movej([-0.769027, -2.22568, -1.15807, -1.16045, 1.57308, -1.10201], a=1, v=1, t=0, r=0)
movej([-0.735717, -2.25313, -1.15155, -1.0945, 1.52311, -1.08653], a=1, v=1, t=0, r=0)
movej([-0.695438, -2.17026, -1.13196, -1.16353, 1.53874, -1.13387], a=1, v=1, t=0, r=0)
movej([-0.752435, -2.15454, -1.10757, -1.18588, 1.56409, -1.11407], a=1, v=1, t=0, r=0)
movej([-0.740804, -2.09016, -1.07476, -1.19121, 1.55404, -1.10222], a=1, v=1, t=0, r=0)
movej([-0.729986, -1.97232, -1.1201, -1.09543, 1.41909, -1.11389], a=1, v=1, t=0, r=0)
movej([-0.685942, -1.96364, -1.14002, -1.0689, 1.46697, -1.12859], a=1, v=1, t=0, r=0)
movej([-0.668075, -1.89797, -1.13088, -1.04944, 1.44409, -1.12581], a=1, v=1, t=0, r=0)
movej([-0.64513, -1.92071, -1.12024, -1.01571, 1.38222, -1.08689], a=1, v=1, t=0, r=0)
movej([-0.697855, -1.90731, -1.08492, -1.02006, 1.35971, -1.05701], a=1, v=1, t=0, r=0)
movej([-0.736135, -1.89141, -1.17675, -1.02138, 1.31121, -0.99725], a=1, v=1, t=0, r=0)
movej([-0.859622, -1.84082, -1.24612, -0.902286, 1.24996, -0.976573], a=1, v=1, t=0, r=0)
movej([-1.14741, -1.72802, -1.41148, -0.938906, 1.31034, -0.843544], a=1, v=1, t=0, r=0)
movej([-1.19225, -1.72876, -1.45058, -0.956862, 1.34656, -0.822304], a=1, v=1, t=0, r=0)
movej([-1.22197, -1.7339, -1.49413, -0.95948, 1.3778, -0.865158], a=1, v=1, t=0, r=0)
movej([-1.28141, -1.74417, -1.58122, -0.964717, 1.44028, -0.950865], a=1, v=1, t=0, r=0)
movej([-1.31112, -1.74931, -1.62477, -0.967336, 1.47152, -0.993718], a=1, v=1, t=0, r=0)
movej([-1.88293, -1.55479, -2.27374, -0.854572, 1.52679, -1.16672], a=1, v=1, t=0, r=0)
movej([-1.94146, -1.53565, -2.29219, -0.833773, 1.55717, -1.15504], a=1, v=1, t=0, r=0)
movej([-2, -1.51652, -2.31064, -0.812974, 1.58755, -1.14337], a=1, v=1, t=0, r=0)
sleep(2.0)
