movej([-2, -1.51652, -2.31064, -0.812974, 1.58755, -1.14337], a=1, v=1, t=0, r=0)
movej([-1.96451, -1.50603, -2.25458, -0.817321, 1.60061, -1.11298], a=1, v=1, t=0, r=0)
movej([-1.37761, -1.32831, -2.03668, -0.874371, 1.45289, -1.105], a=1, v=1, t=0, r=0)
movej([-1.28128, -1.26419, -1.90092, -0.795631, 1.40375, -1.04936], a=1, v=1, t=0, r=0)
movej([-1.24736, -1.25525, -1.86679, -0.761828, 1.41272, -1.00457], a=1, v=1, t=0, r=0)
movej([-1.21344, -1.24631, -1.83265, -0.728025, 1.42169, -0.959779], a=1, v=1, t=0, r=0)
movej([-1.19052, -1.30291, -1.79851, -0.751605, 1.43056, -0.969514], a=1, v=1, t=0, r=0)
movej([-1.12176, -1.47273, -1.69607, -0.822344, 1.45717, -0.99872], a=1, v=1, t=0, r=0)
movej([-1.08533, -1.46904, -1.65941, -0.839405, 1.41819, -0.965101], a=1, v=1, t=0, r=0)
movej([-0.960644, -1.56864, -1.44523, -0.940818, 1.36306, -0.947668], a=1, v=1, t=0, r=0)
movej([-0.972593, -1.55914, -1.3917, -0.951429, 1.38445, -0.991891], a=1, v=1, t=0, r=0)
movej([-0.970608, -1.59726, -1.39532, -0.89272, 1.401, -1.01272], a=1, v=1, t=0, r=0)
movej([-0.911066, -1.67225, -1.34097, -0.882547, 1.43213, -1.02133], a=1, v=1, t=0, r=0)
movej([-0.796825, -1.79665, -1.19424, -1.00831, 1.34868, -1.02482], a=1, v=1, t=0, r=0)
movej([-0.763026, -1.81698, -1.15035, -1.04067, 1.3157, -1.02196], a=1, v=1, t=0, r=0)
movej([-0.765313, -1.87947, -1.15518, -1.05728, 1.35007, -1.03723], a=1, v=1, t=0, r=0)
movej([-0.737141, -1.89334, -1.09934, -1.06763, 1.37091, -1.06853], a=1, v=1, t=0, r=0)
movej([-0.760538, -1.87089, -1.10915, -1.10073, 1.40293, -1.11707], a=1, v=1, t=0, r=0)
movej([-0.724799, -1.88443, -1.06514, -1.08237, 1.43047, -1.15072], a=1, v=1, t=0, r=0)
movej([-0.714905, -1.89924, -1.01572, -1.12346, 1.45929, -1.16932], a=1, v=1, t=0, r=0)
movej([-0.650102, -1.91687, -1.03727, -1.10548, 1.44354, -1.16044], a=1, v=1, t=0, r=0)
movej([-0.667555, -1.92267, -1.06361, -1.12178, 1.39996, -1.11116], a=1, v=1, t=0, r=0)
movej([-0.69242, -1.93937, -1.07849, -1.06642, 1.40517, -1.14877], a=1, v=1, t=0, r=0)
movej([-0.640251, -1.95021, -1.09347, -1.07852, 1.42497, -1.1038], a=1, v=1, t=0, r=0)
movej([-0.663983, -2.01142, -1.10951, -1.09438, 1.45258, -1.11046], a=1, v=1, t=0, r=0)
movej([-0.669846, -2.02209, -1.15923, -1.13641, 1.4718, -1.13993], a=1, v=1, t=0, r=0)
movej([-0.644751, -2.04833, -1.18014, -1.12888, 1.50279, -1.08652], a=1, v=1, t=0, r=0)
movej([-0.68342, -2.03386, -1.20617, -1.08847, 1.52994, -1.11606], a=1, v=1, t=0, r=0)
movej([-0.706666, -2.1004, -1.20203, -1.10849, 1.54397, -1.12255], a=1, v=1, t=0, r=0)
movej([-0.686143, -2.13247, -1.20701, -1.11444, 1.57263, -1.17994], a=1, v=1, t=0, r=0)
movej([-0.680407, -2.14718, -1.18493, -1.09922, 1.59783, -1.11653], a=1, v=1, t=0, r=0)
movej([-0.716396, -2.20666, -1.18629, -1.12545, 1.59466, -1.12611], a=1, v=1, t=0, r=0)
movej([-0.72753, -2.22339, -1.22376, -1.15877, 1.54456, -1.14017], a=1, v=1, t=0, r=0)
movej([-0.75487, -2.23738, -1.16314, -1.15631, 1.52173, -1.11828], a=1, v=1, t=0, r=0)
movej([-0.778261, -2.25942, -1.18449, -1.18062, 1.55882, -1.16485], a=1, v=1, t=0, r=0)
sleep(2.0)
movej([-0.778261, -2.25942, -1.18449, -1.18062, 1.55882, -1.16485], a=1, v=1, t=0, r=0)
movej([-0.75487, -2.23738, -1.16314, -1.15631, 1.52173, -1.11828], a=1, v=1, t=0, r=0)
movej([-0.72753, -2.22339, -1.22376, -1.15877, 1.54456, -1.14017], a=1, v=1, t=0, r=0)
movej([-0.716396, -2.20666, -1.18629, -1.12545, 1.59466, -1.12611], a=1, v=1, t=0, r=0)
movej([-0.680407, -2.14718, -1.18493, -1.09922, 1.59783, -1.11653], a=1, v=1, t=0, r=0)
movej([-0.686143, -2.13247, -1.20701, -1.11444, 1.57263, -1.17994], a=1, v=1, t=0, r=0)
movej([-0.706666, -2.1004, -1.20203, -1.10849, 1.54397, -1.12255], a=1, v=1, t=0, r=0)
movej([-0.68342, -2.03386, -1.20617, -1.08847, 1.52994, -1.11606], a=1, v=1, t=0, r=0)
movej([-0.644751, -2.04833, -1.18014, -1.12888, 1.50279, -1.08652], a=1, v=1, t=0, r=0)
movej([-0.669846, -2.02209, -1.15923, -1.13641, 1.4718, -1.13993], a=1, v=1, t=0, r=0)
movej([-0.663983, -2.01142, -1.10951, -1.09438, 1.45258, -1.11046], a=1, v=1, t=0, r=0)
movej([-0.640251, -1.95021, -1.09347, -1.07852, 1.42497, -1.1038], a=1, v=1, t=0, r=0)
movej([-0.69242, -1.93937, -1.07849, -1.06642, 1.40517, -1.14877], a=1, v=1, t=0, r=0)
movej([-0.667555, -1.92267, -1.06361, -1.12178, 1.39996, -1.11116], a=1, v=1, t=0, r=0)
movej([-0.650102, -1.91687, -1.03727, -1.10548, 1.44354, -1.16044], a=1, v=1, t=0, r=0)
movej([-0.714905, -1.89924, -1.01572, -1.12346, 1.45929, -1.16932], a=1, v=1, t=0, r=0)
movej([-0.724799, -1.88443, -1.06514, -1.08237, 1.43047, -1.15072], a=1, v=1, t=0, r=0)
movej([-0.760538, -1.87089, -1.10915, -1.10073, 1.40293, -1.11707], a=1, v=1, t=0, r=0)
movej([-0.737141, -1.89334, -1.09934, -1.06763, 1.37091, -1.06853], a=1, v=1, t=0, r=0)
movej([-0.765313, -1.87947, -1.15518, -1.05728, 1.35007, -1.03723], a=1, v=1, t=0, r=0)
movej([-0.763026, -1.81698, -1.15035, -1.04067, 1.3157, -1.02196], a=1, v=1, t=0, r=0)
movej([-0.796825, -1.79665, -1.19424, -1.00831, 1.34868, -1.02482], a=1, v=1, t=0, r=0)
movej([-0.911066, -1.67225, -1.34097, -0.882547, 1.43213, -1.02133], a=1, v=1, t=0, r=0)
movej([-0.970608, -1.59726, -1.39532, -0.89272, 1.401, -1.01272], a=1, v=1, t=0, r=0)
movej([-0.972593, -1.55914, -1.3917, -0.951429, 1.38445, -0.991891], a=1, v=1, t=0, r=0)
movej([-0.960644, -1.56864, -1.44523, -0.940818, 1.36306, -0.947668], a=1, v=1, t=0, r=0)
movej([-1.08533, -1.46904, -1.65941, -0.839405, 1.41819, -0.965101], a=1, v=1, t=0, r=0)
movej([-1.12176, -1.47273, -1.69607, -0.822344, 1.45717, -0.99872], a=1, v=1, t=0, r=0)
movej([-1.19052, -1.30291, -1.79851, -0.751605, 1.43056, -0.969514], a=1, v=1, t=0, r=0)
movej([-1.21344, -1.24631, -1.83265, -0.728025, 1.42169, -0.959779], a=1, v=1, t=0, r=0)
movej([-1.24736, -1.25525, -1.86679, -0.761828, 1.41272, -1.00457], a=1, v=1, t=0, r=0)
movej([-1.28128, -1.26419, -1.90092, -0.795631, 1.40375, -1.04936], a=1, v=1, t=0, r=0)
movej([-1.37761, -1.32831, -2.03668, -0.874371, 1.45289, -1.105], a=1, v=1, t=0, r=0)
movej([-1.96451, -1.50603, -2.25458, -0.817321, 1.60061, -1.11298], a=1, v=1, t=0, r=0)
movej([-2, -1.51652, -2.31064, -0.812974, 1.58755, -1.14337], a=1, v=1, t=0, r=0)
sleep(2.0)
